X: 120
T: 120. Was mein Gott will, das g'scheh allzeit
N: Derived from chor120.krn
C: Johann Sebastian Bach
%%abc-version 2.0
%%abcx-abcm2ps-target-version 5.9.1 (29 Sep 2008)
%%abc-creator hum2abc beta
%%abcx-conversion-date 2019/03/11 17:28:18
%%abc-edited-by Craig Stuart Sapp
%%humdrum-veritas 593018326
%%humdrum-veritas-data 3909389778
%%
%%barnumbers 0
L: 1/4
M: C
%%staves [1 2 3 4]
V: 1 clef=treble
V: 2 clef=treble
V: 3 clef=treble-8
V: 4 clef=bass
K: D
[V:1] F/G/ [I:setbarnb 1]| 
[V:2] D | 
[V:3] B | 
[V:4] B, | 
[V:1] ABAd | 
[V:2] DDDD/E/ | 
[V:3] AGF/G/ A/B/ | 
[V:4] F,G,D,/E,/ F,/G,/ | 
[V:1] dc!fermata!dd | 
[V:2] F/G/E!fermata!FF | 
[V:3] AA!fermata!AB | 
[V:4] A,A,,!fermata!D,B,, | 
[V:1] cBed/c/ | 
[V:2] F/E/DGF/^G/ | 
[V:3] ^ABB/c/ d/e/ | 
[V:4] F,G,/F,/E,B, | 
[V:1] c2!fermata!B :|]  
[V:2] ^A/BA/!fermata!F :|]  
[V:3] f/c/ f/e/!fermata!d :|]  
[V:4] F,2!fermata!B,, :|]  
[V:1] B [I:setbarnb 5]| 
[V:2] F | 
[V:3] d/c/ | 
[V:4] B,/=A,/ | 
[V:1] BB/c//d// c/B/A | 
[V:2] E/F/^GAE | 
[V:3] Bee/d/c | 
[V:4] ^G,/F,/E,A,,/B,,/ C,/D,/ | 
[V:1] A^G!fermata!AA | 
[V:2] EE!fermata!EF | 
[V:3] Bc/d/!fermata!cd/c/ | 
[V:4] E,/D,/E,!fermata!A,,D,/E,/ | 
[V:1] Bcdc | 
[V:2] FFFE | 
[V:3] Bed/c/ B/^A/ | 
[V:4] D,/C,/ B,,/^A,,/B,,C, | 
[V:1] B2!fermata!cF/G/ | 
[V:2] DC/B,/!fermata!FD/E/ | 
[V:3] fe!fermata!^AB | 
[V:4] D,G,!fermata!F,B, | 
[V:1] ABAd | 
[V:2] FGD/E/ F/G/ | 
[V:3] cd/e/fA | 
[V:4] A,G,F,E,/D,/ | 
[V:1] dc!fermata!dd | 
[V:2] A/E/ F/G/!fermata!FB | 
[V:3] A/B/A!fermata!AA/^G/ | 
[V:4] F,/G,/A,!fermata!D,B,, | 
[V:1] cBed/c/ | 
[V:2] E/F/ =G/A/ B/A//G//F | 
[V:3] ABB/c/ d/^G/ | 
[V:4] A,,E,/F,/ =G,/A,/B, | 
[V:1] c2!fermata!B |]  
[V:2] F/G/ F/E/!fermata!^D |]  
[V:3] ^A/B^A/!fermata!F |]  
[V:4] F,/E,/F,!fermata!B,, |]  



